public/images/easy-to-start-with.svg

<svg width="104" height="104" viewBox="0 0 104 104" fill="none" xmlns="http://www.w3.org/2000/svg">
<path d="M60.706 1.61318C61.4259 1.06858 62.4601 1.27652 62.9136 2.05706L67.4794 9.91551C67.8251 10.5106 68.5306 10.795 69.1924 10.6061L77.932 8.11184C78.8001 7.86409 79.6893 8.43156 79.8302 9.32322L81.2489 18.3004C81.3563 18.9801 81.9114 19.5002 82.5968 19.5632L91.6472 20.3944C92.5462 20.477 93.1703 21.3274 92.9796 22.2097L91.0596 31.0931C90.9142 31.7658 91.244 32.4513 91.8603 32.7576L99.9993 36.8021C100.808 37.2038 101.083 38.2222 100.586 38.9761L95.5865 46.5661C95.2079 47.1408 95.2678 47.8992 95.7319 48.4074L101.86 55.1189C102.469 55.7855 102.357 56.8345 101.622 57.358L94.2183 62.6295C93.6577 63.0286 93.4395 63.7574 93.6887 64.3989L96.9787 72.8711C97.3055 73.7126 96.8225 74.6504 95.9477 74.8729L87.1397 77.1139C86.4727 77.2836 86.0061 77.8843 86.0066 78.5725L86.014 87.6611C86.0148 88.5638 85.2256 89.2638 84.3294 89.1553L75.3067 88.0631C74.6235 87.9804 73.9713 88.372 73.7232 89.014L70.447 97.4915C70.1215 98.3335 69.1328 98.7011 68.3364 98.2762L60.3175 93.9984C59.7103 93.6745 58.9607 93.8041 58.4975 94.313L52.38 101.035C51.7724 101.702 50.7176 101.688 50.1284 101.004L44.1964 94.1182C43.7472 93.5968 43.0014 93.4468 42.3856 93.7541L34.2531 97.8118C33.4454 98.2148 32.467 97.8204 32.1647 96.9698L29.1206 88.4062C28.8901 87.7578 28.2488 87.3485 27.5636 87.4126L18.5145 88.2585C17.6157 88.3425 16.8459 87.6213 16.8713 86.719L17.1263 77.634C17.1456 76.9461 16.6955 76.3328 16.0334 76.145L7.28975 73.6649C6.42129 73.4185 5.96402 72.468 6.31361 71.6357L9.83327 63.2563C10.0998 62.6218 9.90159 61.8874 9.35206 61.4731L2.09479 56.0019C1.37396 55.4585 1.29095 54.4069 1.91758 53.7571L8.22656 47.215C8.70428 46.7196 8.78479 45.9632 8.42202 45.3784L3.63124 37.655C3.15539 36.8879 3.45786 35.8773 4.27691 35.4978L12.5231 31.6765C13.1475 31.3872 13.4959 30.7109 13.3689 30.0345L11.6916 21.1021C11.525 20.2149 12.1721 19.3818 13.0729 19.3238L22.1427 18.7394C22.8295 18.6952 23.3986 18.1904 23.5245 17.5138L25.1873 8.57866C25.3524 7.69118 26.2567 7.14814 27.1177 7.41944L35.7861 10.1509C36.4425 10.3578 37.1555 10.0927 37.5173 9.50725L42.2956 1.77612C42.7702 1.00823 43.8096 0.828545 44.5144 1.39255L51.6107 7.07098C52.1481 7.50096 52.9087 7.51133 53.4576 7.09615L60.706 1.61318Z" fill="#D9FCEC"/>
<g clip-path="url(#clip0)">
<path d="M39.8227 50.6558C39.3759 50.1083 39.1691 49.4196 39.2406 48.7165C39.3121 48.0135 39.6533 47.3805 40.2012 46.9342C40.4803 46.7068 40.7927 46.5463 41.1187 46.4503L40.1488 45.2641C39.7008 44.7167 39.4932 44.0277 39.5643 43.324C39.6354 42.6202 39.9766 41.9866 40.525 41.5399L40.5559 41.5148C40.9791 41.17 41.4782 40.9785 41.9854 40.9331C41.9716 40.7701 41.9724 40.6047 41.9892 40.4384C42.0603 39.7347 42.4015 39.1012 42.9499 38.6546L42.9877 38.6238C43.5353 38.1778 44.2237 37.9717 44.9262 38.0435C45.4005 38.092 45.8426 38.2637 46.2172 38.5383C46.3829 38.2002 46.6207 37.899 46.921 37.6544L46.9459 37.634C48.0761 36.7136 49.7446 36.884 50.6653 38.0143L56.9749 45.761L56.4705 42.0667C56.2712 40.607 57.198 39.2341 58.6263 38.873C59.4301 38.6699 60.2835 38.8221 60.9676 39.2905C61.6516 39.7588 62.1021 40.4994 62.2035 41.3223L62.2696 41.859C62.5858 44.4256 63.2746 47.0428 64.3169 49.6375C65.0979 51.5818 65.2466 53.7775 64.7356 55.8201C64.2069 57.9335 63.0322 59.7798 61.3386 61.1592C59.2597 62.8526 56.6466 63.6347 53.9795 63.3619L53.9727 63.3613C51.3034 63.0866 48.9015 61.7882 47.2095 59.7053L45.4036 57.4822L39.8227 50.6558ZM48.4705 58.6809C49.8886 60.4267 51.9018 61.5149 54.139 61.7451L54.1447 61.7457C56.38 61.9742 58.5702 61.3187 60.3126 59.8995C61.7322 58.7434 62.7166 57.1963 63.1596 55.4258C63.5881 53.7128 63.4637 51.8722 62.8093 50.2431C61.7146 47.5179 60.9904 44.7639 60.6571 42.0576L60.591 41.5209C60.546 41.1552 60.3538 40.8392 60.0497 40.631C59.7457 40.4229 59.3814 40.358 59.0243 40.4482C58.3988 40.6063 57.9928 41.2076 58.0801 41.8469L58.9758 48.4057C59.0922 49.0843 58.1671 49.7323 57.5411 49.0286L49.4056 39.0403C49.0507 38.6045 48.4075 38.5389 47.9726 38.8931L47.9476 38.9134C47.7366 39.0854 47.6051 39.3291 47.5774 39.5999C47.5498 39.8708 47.6292 40.1361 47.8011 40.3472C49.1253 41.9729 51.5005 44.889 52.8003 46.4849C53.0836 46.8327 53.0313 47.3444 52.6835 47.6277C52.3356 47.9111 51.8239 47.8588 51.5407 47.5109C50.7375 46.5249 46.1235 40.8601 45.4473 40.03C45.2755 39.8189 45.0317 39.6875 44.7609 39.6598C44.49 39.6321 44.2247 39.7115 44.0136 39.8835L43.9758 39.9143C43.7644 40.0865 43.6329 40.3307 43.6054 40.6019C43.578 40.8731 43.658 41.1387 43.8308 41.3499C45.6507 43.5752 48.1398 46.6177 49.9413 48.8218C50.2253 49.1691 50.174 49.6808 49.8267 49.9649C49.6526 50.1072 49.4372 50.1654 49.2299 50.1442C49.0236 50.1231 48.8253 50.0235 48.6837 49.8503C47.4726 48.3694 44.1731 44.3344 43.014 42.9191C42.6589 42.4854 42.0165 42.4205 41.5818 42.7744L41.551 42.7995C41.3396 42.9717 41.2081 43.216 41.1807 43.4872C41.1533 43.7585 41.2333 44.0241 41.4062 44.2354C43.1715 46.394 45.9674 49.8124 47.717 51.9537C48.001 52.3011 47.9497 52.8129 47.6024 53.0968C47.4283 53.2391 47.2129 53.2973 47.0056 53.2761C46.7993 53.255 46.6009 53.1553 46.4594 52.9822L43.1312 48.9117L42.6576 48.3363C42.3023 47.9047 41.6606 47.8409 41.2272 48.1938C41.016 48.3659 40.8845 48.6098 40.8569 48.8809C40.8293 49.1518 40.9091 49.4174 41.081 49.6279L46.6631 56.4558L48.4705 58.6809Z" fill="#07C26F"/>
<path d="M40.227 56.3658C40.0933 55.9376 40.3321 55.482 40.7603 55.3484C41.1886 55.2146 41.6441 55.4534 41.7778 55.8817C41.9842 56.5426 42.3128 57.1528 42.7545 57.695C43.2941 58.3575 43.9593 58.8701 44.7318 59.2186C45.1407 59.4031 45.3227 59.8841 45.1382 60.2931C44.9907 60.6201 44.6535 60.802 44.3152 60.7674C44.2304 60.7587 44.1456 60.7365 44.0636 60.6996C43.0593 60.2464 42.195 59.5808 41.4947 58.721C40.9219 58.0176 40.4953 57.2252 40.227 56.3658Z" fill="#07C26F"/>
<path d="M38.0462 56.591C38.4744 56.4571 38.9301 56.6956 39.064 57.1238C39.3515 58.0432 39.8088 58.8918 40.4231 59.646C41.1376 60.5232 42.0129 61.2134 43.0248 61.6973C43.4295 61.8909 43.6007 62.3759 43.4071 62.7807C43.2551 63.0986 42.9232 63.2723 42.5916 63.2384C42.5011 63.2292 42.4106 63.2045 42.3238 63.1629C41.0939 62.5747 40.0306 61.7366 39.1635 60.672C38.4181 59.7569 37.8629 58.7263 37.5134 57.6088C37.3795 57.1806 37.618 56.725 38.0462 56.591Z" fill="#07C26F"/>
</g>
<path d="M29.4733 38.3375L33.285 33.2163L31.9149 32.1965L29.2317 35.8016L27.3561 34.4056L29.2536 31.8563L27.9621 30.895L26.0646 33.4443L24.5597 32.3242L27.1427 28.854L25.7725 27.8342L22.0611 32.8206L29.4733 38.3375Z" fill="#07C26F"/>
<path d="M39.2894 28.6484L40.9736 27.5151L32.3064 22.0077L31.7837 22.3594L33.6096 32.4705L35.2938 31.3372L35.0514 30.0491L38.1874 27.9387L39.2894 28.6484ZM36.774 27.0168L34.7297 28.3924L34.0089 25.1145L36.774 27.0168Z" fill="#07C26F"/>
<path d="M44.8313 26.4696C46.5996 25.9832 47.671 24.5995 47.2143 22.9391C46.8653 21.6703 45.872 21.1739 44.2974 20.9391L43.1625 20.7722C42.4328 20.6534 41.982 20.5451 41.8409 20.0322C41.6775 19.4382 42.1162 19.0272 42.7101 18.8638C43.4391 18.6633 44.083 18.8927 44.6931 19.4218L45.6714 18.1218C44.8776 17.2947 43.6819 16.8541 42.2646 17.2439C40.5907 17.7044 39.5794 19.0425 40.0027 20.5813C40.3554 21.8637 41.4874 22.3364 42.868 22.552L43.9452 22.7203C44.7362 22.8512 45.2239 22.9349 45.3835 23.5153C45.5543 24.1363 45.1686 24.6344 44.3857 24.8498C43.3193 25.1431 42.5141 24.6967 41.8425 24.1554L40.847 25.4456C41.8352 26.4516 43.2924 26.8929 44.8313 26.4696Z" fill="#07C26F"/>
<path d="M58.67 16.2119L56.587 16.0993L54.3619 19.6523L52.519 15.8793L50.422 15.7659L53.3063 21.5441L53.1105 25.1648L54.9977 25.2668L55.1943 21.6321L58.67 16.2119Z" fill="#07C26F"/>
<path d="M64.8304 28.1756L66.4434 29.1607L70.3693 22.7328L72.9022 24.2799L73.7925 22.8222L67.1256 18.7503L66.2354 20.208L68.7564 21.7477L64.8304 28.1756Z" fill="#07C26F"/>
<path d="M73.1253 35.4076C74.8099 37.5382 77.8071 37.9882 79.9376 36.3037C82.0681 34.6192 82.3216 31.5989 80.637 29.4684C78.9525 27.3379 75.9726 26.9098 73.8421 28.5943C71.7116 30.2788 71.4408 33.2771 73.1253 35.4076ZM74.5068 34.3332C73.4388 32.9825 73.6434 31.2323 75.0491 30.1208C76.4438 29.0181 78.205 29.214 79.273 30.5648C80.3236 31.8936 80.1254 33.6745 78.7307 34.7772C77.325 35.8886 75.5574 35.6621 74.5068 34.3332Z" fill="#07C26F"/>
<path d="M17.3361 57.4105C17.6815 59.3002 19.0271 60.5449 20.8014 60.2205C22.1573 59.9726 22.7663 58.9818 23.1555 57.3603L23.4338 56.1914C23.6245 55.441 23.7789 54.9805 24.327 54.8802C24.9617 54.7642 25.3504 55.2596 25.4665 55.8943C25.6089 56.6733 25.3105 57.3241 24.7025 57.9123L25.9692 59.0521C26.905 58.2997 27.4744 57.0925 27.1975 55.5778C26.8704 53.7891 25.5669 52.6113 23.9224 52.9119C22.5521 53.1625 21.9551 54.3002 21.6037 55.721L21.3293 56.8296C21.1202 57.643 20.9882 58.1441 20.368 58.2575C19.7044 58.3788 19.22 57.9307 19.0671 57.0941C18.8587 55.9545 19.3983 55.1552 20.0246 54.5041L18.7696 53.3471C17.6294 54.286 17.0354 55.7661 17.3361 57.4105Z" fill="#07C26F"/>
<path d="M20.4349 66.7669L21.3233 68.4352L27.9714 64.8949L29.3665 67.5147L30.874 66.7119L27.2022 59.8166L25.6946 60.6194L27.0831 63.2267L20.4349 66.7669Z" fill="#07C26F"/>
<path d="M29.2108 78.3128L30.6771 79.7166L34.2098 70.0744L33.7547 69.6387L24.2655 73.5786L25.7319 74.9824L26.9387 74.4709L29.6692 77.0849L29.2108 78.3128ZM30.2685 75.5073L28.4886 73.8034L31.5375 72.4002L30.2685 75.5073Z" fill="#07C26F"/>
<path d="M42.2051 85.77L41.3042 81.3893C42.4117 81.35 43.3767 80.7401 43.8646 79.6547C44.6052 78.0075 43.8233 76.3666 42.0485 75.5686L38.8818 74.1449L35.0928 82.5723L36.8166 83.3473L38.1542 80.3722L39.4184 80.9405L40.2642 84.8974L42.2051 85.77ZM39.9224 76.4394L41.3653 77.0881C42.1697 77.4498 42.4183 78.1602 42.1025 78.8625C41.7753 79.5903 41.0847 79.8631 40.2803 79.5014L38.8374 78.8527L39.9224 76.4394Z" fill="#07C26F"/>
<path d="M47.2839 86.6278L49.1644 86.8169L49.9182 79.3227L52.8713 79.6198L53.0422 77.9203L45.2694 77.1385L45.0985 78.838L48.0377 79.1336L47.2839 86.6278Z" fill="#07C26F"/>
<path d="M68.1777 72.9274L68.8504 78.6971L64.123 74.8399L63.5636 75.1299L64.0034 81.2411L59.6635 77.3407L57.7991 78.3071L65.4101 84.9588L65.9569 84.6753L65.5891 78.3376L70.5434 82.2979L71.0903 82.0144L70.0421 71.961L68.1777 72.9274Z" fill="#07C26F"/>
<path d="M77.3066 76.9033L78.5986 75.5239L71.8548 69.2074L70.5628 70.5868L77.3066 76.9033Z" fill="#07C26F"/>
<path d="M82.6119 70.3204L83.543 68.6757L76.9886 64.9648L78.4508 62.382L76.9645 61.5405L73.1157 68.3386L74.602 69.1801L76.0574 66.6095L82.6119 70.3204Z" fill="#07C26F"/>
<path d="M86.5868 62.4255L86.9196 60.565L82.9919 59.8625L83.7117 55.8384L87.6394 56.5409L87.9722 54.6804L78.8765 53.0535L78.5437 54.914L82.0304 55.5376L81.3106 59.5618L77.8239 58.9381L77.4911 60.7986L86.5868 62.4255Z" fill="#07C26F"/>
<defs>
<clipPath id="clip0">
<rect width="27.0697" height="27.0697" fill="white" transform="matrix(-0.994815 -0.101699 -0.101699 0.994815 66.5898 38.6758)"/>
</clipPath>
</defs>
</svg>

<svg width="104" height="104" fill="none" xmlns="http://www.w3.org/2000/svg"><path d="M60.706 1.613a1.504 1.504 0 012.208.444l4.565 7.859c.346.595 1.052.879 1.713.69l8.74-2.494a1.504 1.504 0 011.898 1.211L81.25 18.3c.107.68.662 1.2 1.348 1.263l9.05.831a1.504 1.504 0 011.333 1.816l-1.92 8.883a1.504 1.504 0 00.8 1.665l8.14 4.044a1.503 1.503 0 01.586 2.174l-5 7.59a1.504 1.504 0 00.146 1.841l6.128 6.712a1.504 1.504 0 01-.238 2.239l-7.404 5.272c-.56.399-.779 1.127-.53 1.769l3.29 8.472a1.504 1.504 0 01-1.03 2.002l-8.808 2.24c-.667.17-1.134.771-1.133 1.46l.007 9.088c0 .903-.788 1.603-1.685 1.494l-9.022-1.092a1.504 1.504 0 00-1.584.951l-3.276 8.478a1.504 1.504 0 01-2.11.784l-8.02-4.278a1.504 1.504 0 00-1.82.315l-6.117 6.722a1.504 1.504 0 01-2.252-.031l-5.932-6.886a1.504 1.504 0 00-1.81-.364l-8.133 4.058a1.504 1.504 0 01-2.088-.842l-3.044-8.564a1.504 1.504 0 00-1.557-.993l-9.05.846a1.504 1.504 0 01-1.643-1.54l.255-9.085a1.504 1.504 0 00-1.093-1.489l-8.743-2.48a1.504 1.504 0 01-.976-2.03l3.52-8.379a1.504 1.504 0 00-.482-1.783l-7.257-5.471a1.504 1.504 0 01-.177-2.245l6.309-6.542a1.504 1.504 0 00.195-1.837l-4.79-7.723a1.504 1.504 0 01.645-2.157l8.246-3.821c.625-.29.973-.966.846-1.642l-1.677-8.933a1.504 1.504 0 011.38-1.778l9.07-.585a1.504 1.504 0 001.383-1.225l1.662-8.935a1.504 1.504 0 011.93-1.16l8.67 2.732a1.504 1.504 0 001.73-.644l4.779-7.73a1.504 1.504 0 012.218-.384l7.097 5.678c.537.43 1.298.44 1.847.025l7.248-5.483z" fill="#D9FCEC"/><g clip-path="url(#clip0)" fill="#07C26F"><path d="M39.823 50.656a2.627 2.627 0 01-.582-1.94 2.627 2.627 0 01.96-1.782c.28-.227.592-.388.918-.484l-.97-1.186a2.626 2.626 0 01-.585-1.94 2.626 2.626 0 01.961-1.784l.03-.025a2.627 2.627 0 011.43-.582 2.626 2.626 0 01.965-2.279l.038-.03a2.627 2.627 0 011.938-.58c.474.048.917.22 1.291.494.166-.338.404-.639.704-.884l.025-.02a2.647 2.647 0 013.72.38l6.309 7.747-.505-3.694a2.889 2.889 0 014.498-2.776 2.892 2.892 0 011.235 2.031l.067.537c.316 2.567 1.005 5.184 2.047 7.779.78 1.944.93 4.14.419 6.182a9.953 9.953 0 01-3.397 5.34 9.969 9.969 0 01-7.36 2.202h-.006a9.971 9.971 0 01-6.764-3.657l-1.805-2.223-5.581-6.826zm8.648 8.025a8.357 8.357 0 005.668 3.064h.006a8.356 8.356 0 006.168-1.845 8.34 8.34 0 002.847-4.474 8.485 8.485 0 00-.35-5.183c-1.095-2.725-1.82-5.48-2.153-8.185l-.066-.537a1.25 1.25 0 00-.541-.89 1.265 1.265 0 00-1.97 1.216l.896 6.559c.116.678-.809 1.326-1.435.623l-8.135-9.989a1.02 1.02 0 00-1.433-.147l-.025.02a1.013 1.013 0 00-.37.687c-.028.27.051.536.223.747l5 6.138a.812.812 0 01-1.26 1.026l-6.094-7.481a1.012 1.012 0 00-.686-.37 1.012 1.012 0 00-.747.224l-.038.03a1.013 1.013 0 00-.37.688c-.028.271.052.537.225.748l6.11 7.472a.812.812 0 01-1.257 1.028c-1.211-1.48-4.51-5.516-5.67-6.93a1.021 1.021 0 00-1.432-.146l-.031.026a1.012 1.012 0 00-.37.687c-.028.271.052.537.225.748l6.311 7.719a.812.812 0 01-1.258 1.028l-3.328-4.07-.473-.576a1.021 1.021 0 00-1.801.545c-.028.27.052.536.224.747l5.582 6.828 1.808 2.225zM40.227 56.366a.812.812 0 111.55-.484c.207.66.536 1.27.977 1.813a5.387 5.387 0 001.978 1.524.812.812 0 11-.668 1.48 7 7 0 01-2.57-1.978 7.036 7.036 0 01-1.267-2.355zM38.046 56.591a.812.812 0 011.018.533c.288.92.745 1.768 1.36 2.522a7.514 7.514 0 002.6 2.051.812.812 0 01-.7 1.466 9.127 9.127 0 01-3.16-2.491 9.161 9.161 0 01-1.65-3.063.812.812 0 01.532-1.018z"/></g><path d="M29.473 38.337l3.812-5.12-1.37-1.02-2.683 3.605-1.876-1.396 1.898-2.55-1.292-.961-1.897 2.55-1.505-1.12 2.583-3.471-1.37-1.02-3.712 4.987 7.412 5.517zM39.29 28.648l1.684-1.133-8.668-5.507-.522.351L33.61 32.47l1.684-1.133-.243-1.288 3.136-2.11 1.102.71zm-2.516-1.631l-2.044 1.375-.721-3.277 2.765 1.902zM44.831 26.47c1.769-.487 2.84-1.87 2.383-3.53-.349-1.27-1.342-1.766-2.917-2l-1.134-.168c-.73-.119-1.181-.227-1.322-.74-.163-.594.275-1.005.87-1.168.728-.2 1.372.029 1.982.558l.978-1.3c-.793-.827-1.99-1.268-3.406-.878-1.674.46-2.686 1.799-2.262 3.337.352 1.283 1.484 1.755 2.865 1.971l1.077.168c.791.131 1.279.215 1.438.795.171.621-.214 1.12-.997 1.335-1.067.293-1.872-.153-2.544-.695l-.995 1.29c.988 1.007 2.445 1.448 3.984 1.025zM58.67 16.212l-2.083-.113-2.225 3.553-1.843-3.773-2.097-.113 2.884 5.778-.195 3.62 1.887.103.196-3.635 3.476-5.42zM64.83 28.176l1.613.985 3.926-6.428 2.533 1.547.89-1.458-6.666-4.072-.89 1.458 2.52 1.54-3.926 6.428zM73.125 35.408c1.685 2.13 4.682 2.58 6.813.896 2.13-1.685 2.384-4.705.699-6.836-1.684-2.13-4.664-2.558-6.795-.874-2.13 1.685-2.401 4.683-.717 6.814zm1.382-1.075c-1.068-1.35-.864-3.1.542-4.212 1.395-1.103 3.156-.907 4.224.444 1.05 1.329.852 3.11-.542 4.212-1.406 1.112-3.174.885-4.224-.444zM17.336 57.41c.346 1.89 1.691 3.135 3.465 2.81 1.356-.247 1.965-1.238 2.355-2.86l.278-1.169c.19-.75.345-1.21.893-1.31.635-.117 1.023.379 1.14 1.013.142.78-.156 1.43-.764 2.018l1.266 1.14c.936-.752 1.505-1.96 1.229-3.474-.328-1.789-1.631-2.967-3.276-2.666-1.37.25-1.967 1.388-2.318 2.809l-.275 1.109c-.209.813-.34 1.314-.961 1.428-.664.12-1.148-.327-1.3-1.164-.21-1.14.33-1.939.957-2.59l-1.255-1.157c-1.14.939-1.735 2.42-1.434 4.063zM20.435 66.767l.888 1.668 6.648-3.54 1.395 2.62 1.508-.803-3.672-6.895-1.507.802 1.388 2.608-6.648 3.54zM29.21 78.313l1.467 1.404 3.533-9.643-.455-.435-9.49 3.94 1.467 1.403 1.207-.511 2.73 2.614-.458 1.228zm1.058-2.806l-1.78-1.704 3.05-1.403-1.27 3.107zM42.205 85.77l-.9-4.38c1.107-.04 2.072-.65 2.56-1.735.74-1.648-.042-3.288-1.817-4.086l-3.166-1.424-3.79 8.427 1.725.775 1.337-2.975 1.264.569.846 3.956 1.941.873zm-2.283-9.33l1.443.648c.805.362 1.053 1.072.737 1.775-.327.727-1.017 1-1.822.638l-1.443-.648 1.085-2.414zM47.284 86.628l1.88.189.754-7.494 2.953.297.171-1.7-7.773-.782-.17 1.7 2.939.296-.754 7.494zM68.178 72.927l.672 5.77-4.727-3.857-.56.29.44 6.111-4.34-3.9-1.864.966 7.611 6.652.547-.284-.368-6.337 4.954 3.96.547-.284-1.048-10.053-1.864.966zM77.307 76.903l1.292-1.38-6.744-6.316-1.292 1.38 6.744 6.316zM82.612 70.32l.931-1.644-6.554-3.711 1.462-2.583-1.486-.841-3.85 6.798 1.487.841 1.455-2.57 6.555 3.71zM86.587 62.425l.333-1.86-3.928-.703.72-4.024 3.927.703.333-1.86-9.096-1.627-.332 1.86 3.486.624-.72 4.024-3.486-.624-.333 1.86 9.096 1.627z" fill="#07C26F"/><defs><clipPath id="clip0"><path fill="#fff" transform="scale(-1 1) rotate(-5.837 346.016 672.414)" d="M0 0h27.07v27.07H0z"/></clipPath></defs></svg>
